assets/lib/svg/flags/1x1/cr-tat.svg

<?xml version="1.0" encoding="UTF-8" standalone="no"?>
<svg
   width="512"
   height="512"
   viewBox="0 0 128 128"
   version="1.1"
   id="svg1084"
   sodipodi:docname="ua-ct.svg"
   inkscape:version="1.2.2 (b0a84865, 2022-12-01)"
   xmlns:inkscape="http://www.inkscape.org/namespaces/inkscape"
   xmlns:sodipodi="http://sodipodi.sourceforge.net/DTD/sodipodi-0.dtd"
   xmlns="http://www.w3.org/2000/svg"
   xmlns:svg="http://www.w3.org/2000/svg">
  <defs
     id="defs1088" />
  <sodipodi:namedview
     id="namedview1086"
     pagecolor="#ffffff"
     bordercolor="#666666"
     borderopacity="1.0"
     inkscape:showpageshadow="2"
     inkscape:pageopacity="0.0"
     inkscape:pagecheckerboard="0"
     inkscape:deskcolor="#d1d1d1"
     showgrid="false"
     inkscape:zoom="1.1699219"
     inkscape:cx="256"
     inkscape:cy="256"
     inkscape:window-width="1440"
     inkscape:window-height="819"
     inkscape:window-x="0"
     inkscape:window-y="25"
     inkscape:window-maximized="0"
     inkscape:current-layer="svg1084"
     showguides="true" />
  <g
     id="g1477"
     transform="scale(1.0666667)"
     style="stroke-width:0.9375">
    <path
       fill="#00a3dd"
       d="M 0,0 H 120 V 120 H 0 Z"
       id="path1080"
       style="stroke-width:1.52344" />
    <path
       d="m 24.615385,18.461539 v 18.461538 h -6.153846 v 6.153846 H 30.769231 V 24.615385 H 43.076923 V 43.076923 H 36.923077 V 49.23077 H 55.384616 V 43.076923 H 49.23077 V 24.615385 H 61.538462 V 43.076923 H 73.846154 V 36.923077 H 67.692308 V 18.461539 Z"
       style="fill:#f8d80e;stroke-width:0.9375"
       id="path1082" />
  </g>
</svg>

<svg id="flag-icons-cr-tat" class="fi fi-cr-tat" viewBox="0 0 512 512" xmlns="http://www.w3.org/2000/svg" width="512" height="512">
  <metadata id="flag-icons">
    <name>Crimean Tatars</name>
    <code>cr-tat</code>
    <iso>false</iso>
    <type>People</type>
    <continent>Europe</continent>
  </metadata>
  <g style="stroke-width:.234376">
    <path fill="#00a3dd" d="M0 0h120v120H0Z" style="stroke-width:.380861" transform="scale(4.26667)"/>
    <path d="M24.615 18.462v18.461h-6.153v6.154h12.307V24.615h12.308v18.462h-6.154v6.154h18.462v-6.154H49.23V24.615h12.307v18.462h12.308v-6.154h-6.154V18.462Z" style="fill:#f8d80e;stroke-width:.234376" transform="scale(4.26667)"/>
  </g>
</svg>
